X: 14599
T: Gan Ainm
R: waltz
M: 3/4
K: Dmajor
f3 g fd|~f2 fg fd|B2 Bd cB|A2 AF D2|f3 g fd|~f2 fg fd|B2 Bd cB|
[1 A6:|2 ABAGFG|:E2 ED EF|G>F GA Bc|d>c BA GA|FA DE F/E/D|
E2 ED EF|G>F GA Bc|d>c de fg|1 fd B4:|2 fedeag||

